src/lib/packages/icons/src/assets/line/receipt-star.svg

<svg width="24" height="24" viewBox="0 0 24 24" fill="none" xmlns="http://www.w3.org/2000/svg">
<path d="M12 21.749C11.424 21.749 10.8481 21.53 10.4091 21.091L8.38904 19.072C8.12604 18.81 7.70496 18.781 7.40796 19.003L6.05005 20.022C5.51605 20.422 4.81302 20.485 4.21802 20.187C3.62102 19.889 3.25 19.289 3.25 18.622V6C3.25 3.582 4.582 2.25 7 2.25H17C19.418 2.25 20.75 3.582 20.75 6V18.621C20.75 19.288 20.379 19.888 19.782 20.186C19.187 20.484 18.485 20.421 17.95 20.021L16.5909 19.001C16.2949 18.779 15.874 18.808 15.611 19.071L13.5909 21.09C13.1519 21.53 12.576 21.749 12 21.749ZM7.85596 17.356C8.43696 17.356 9.01595 17.578 9.44995 18.011L11.47 20.031C11.753 20.314 12.247 20.314 12.531 20.031L14.551 18.012C15.338 17.225 16.604 17.137 17.491 17.803L18.851 18.823C18.958 18.905 19.06 18.872 19.113 18.847C19.164 18.821 19.251 18.758 19.251 18.623V6C19.251 4.423 18.578 3.75 17.001 3.75H7.00098C5.42398 3.75 4.75098 4.423 4.75098 6V18.621C4.75098 18.756 4.83804 18.819 4.88904 18.845C4.94204 18.871 5.042 18.903 5.151 18.821L6.51001 17.801C6.90801 17.503 7.38296 17.356 7.85596 17.356ZM14.292 15.75C14.093 15.75 13.894 15.702 13.709 15.606L12 14.714L10.292 15.605C9.86399 15.829 9.35602 15.79 8.96802 15.506C8.58002 15.223 8.39005 14.753 8.47205 14.281L8.79602 12.405L7.37195 11.028C7.03495 10.702 6.91506 10.223 7.06006 9.77701C7.20506 9.33001 7.58297 9.011 8.04797 8.944L10.0229 8.66L10.875 6.94699C11.088 6.51799 11.52 6.25 12.001 6.25C12.481 6.25 12.913 6.51699 13.127 6.94699L13.979 8.66L15.954 8.944C16.419 9.011 16.798 9.33001 16.942 9.77701C17.087 10.223 16.966 10.702 16.63 11.028L15.2061 12.405L15.531 14.283C15.612 14.756 15.422 15.225 15.033 15.508C14.811 15.668 14.552 15.75 14.292 15.75ZM12 13.18C12.194 13.18 12.389 13.226 12.566 13.319L13.965 14.049L13.699 12.513C13.631 12.114 13.763 11.709 14.054 11.428L15.172 10.347L13.618 10.123C13.222 10.066 12.878 9.81802 12.698 9.45901L11.998 8.05099L11.299 9.457C11.118 9.817 10.775 10.065 10.377 10.123L8.82397 10.347L9.94299 11.429C10.233 11.709 10.366 12.114 10.297 12.512L10.031 14.047L11.4301 13.318C11.6111 13.226 11.806 13.18 12 13.18ZM15.099 12.507C15.098 12.507 15.098 12.507 15.099 12.507V12.507ZM15.7371 10.428H15.748H15.7371ZM11.782 7.61401C11.782 7.61401 11.783 7.615 11.783 7.616L11.782 7.61401Z" fill="currentColor"/>
</svg>

<svg xmlns="http://www.w3.org/2000/svg" width="24" height="24" fill="none"><path fill="currentColor" d="M12 21.749a2.242 2.242 0 0 1-1.59-.658l-2.021-2.019a.756.756 0 0 0-.981-.069L6.05 20.022c-.534.4-1.237.463-1.832.165a1.74 1.74 0 0 1-.968-1.565V6c0-2.418 1.332-3.75 3.75-3.75h10c2.418 0 3.75 1.332 3.75 3.75v12.621a1.74 1.74 0 0 1-.968 1.565 1.741 1.741 0 0 1-1.832-.165l-1.36-1.02a.753.753 0 0 0-.979.07l-2.02 2.019a2.24 2.24 0 0 1-1.591.659Zm-4.144-4.393c.581 0 1.16.222 1.594.655l2.02 2.02a.77.77 0 0 0 1.061 0l2.02-2.019a2.261 2.261 0 0 1 2.94-.209l1.36 1.02a.24.24 0 0 0 .262.024.241.241 0 0 0 .138-.224V6c0-1.577-.673-2.25-2.25-2.25h-10c-1.577 0-2.25.673-2.25 2.25v12.621c0 .135.087.198.138.224a.238.238 0 0 0 .262-.024l1.359-1.02a2.243 2.243 0 0 1 1.346-.445Zm6.436-1.606c-.199 0-.398-.048-.583-.144L12 14.714l-1.708.891a1.249 1.249 0 0 1-1.324-.099 1.244 1.244 0 0 1-.496-1.225l.324-1.876-1.424-1.377a1.209 1.209 0 0 1-.312-1.251c.145-.447.523-.766.988-.833l1.975-.284.852-1.713a1.25 1.25 0 0 1 1.126-.697c.48 0 .912.267 1.126.697l.852 1.713 1.975.284c.465.067.844.386.988.833a1.21 1.21 0 0 1-.312 1.251l-1.424 1.377.325 1.878c.081.473-.109.942-.498 1.225-.222.16-.481.242-.741.242ZM12 13.18c.194 0 .389.046.566.139l1.399.73-.266-1.536a1.22 1.22 0 0 1 .355-1.085l1.118-1.081-1.554-.224a1.225 1.225 0 0 1-.92-.664l-.7-1.408-.699 1.406a1.23 1.23 0 0 1-.922.666l-1.553.224 1.119 1.082c.29.28.423.685.354 1.083l-.266 1.535 1.4-.729A1.25 1.25 0 0 1 12 13.18Zm3.099-.673c-.001 0-.001 0 0 0Zm.638-2.079h.011-.01Zm-3.955-2.814.001.002-.001-.002Z"/></svg>
